public/formular-icons/greece/lower-omega.svg

<svg style="vertical-align:-.025ex" xmlns="http://www.w3.org/2000/svg" width="1.407ex" height="1.027ex" viewBox="0 -443 622 454" xmlns:xlink="http://www.w3.org/1999/xlink"><defs><path id="a" d="M495 384q0 22 19 40t41 19q19 0 34-18t15-61q0-30-12-86t-37-123-72-117-106-49q-80 0-110 77-1 2-7-5-59-72-135-72Q15-11 15 139q0 91 41 186t67 109q12 7 24 2 13-7 13-18 0-12-20-39t-46-73-32-98q-1-6-1-21 0-63 24-87t58-24q58 0 102 53l8 8v19q5 141 64 141 31 0 31-36 0-18-10-48t-20-55l-10-23q1-2 2-6t8-14 16-18 24-14 35-7q63 0 108 72t45 126q0 31-13 51t-25 32-13 27Z"/></defs><g stroke="currentColor" fill="currentColor" stroke-width="0"><use data-c="1D714" xlink:href="#a" transform="scale(1 -1)"/></g></svg>

<svg style="vertical-align: -0.025ex" xmlns="http://www.w3.org/2000/svg" width="1.407ex" height="1.027ex" role="img" focusable="false" viewBox="0 -443 622 454" xmlns:xlink="http://www.w3.org/1999/xlink"><defs><path id="MJX-134-TEX-I-1D714" d="M495 384Q495 406 514 424T555 443Q574 443 589 425T604 364Q604 334 592 278T555 155T483 38T377 -11Q297 -11 267 66Q266 68 260 61Q201 -11 125 -11Q15 -11 15 139Q15 230 56 325T123 434Q135 441 147 436Q160 429 160 418Q160 406 140 379T94 306T62 208Q61 202 61 187Q61 124 85 100T143 76Q201 76 245 129L253 137V156Q258 297 317 297Q348 297 348 261Q348 243 338 213T318 158L308 135Q309 133 310 129T318 115T334 97T358 83T393 76Q456 76 501 148T546 274Q546 305 533 325T508 357T495 384Z"></path></defs><g stroke="currentColor" fill="currentColor" stroke-width="0" transform="scale(1,-1)"><g data-mml-node="math"><g data-mml-node="mi"><use data-c="1D714" xlink:href="#MJX-134-TEX-I-1D714"></use></g></g></g></svg>
